X: 21
T: Ave regina celorum III
N: Derived from Duf2012-Ave_regina_celorum_III.krn
C: Guillaume Du Fay
%%abc-version 2.0
%%abcx-abcm2ps-target-version 5.9.1 (29 Sep 2008)
%%abc-creator hum2abc beta
%%abcx-conversion-date 2019/02/16 20:31:47
%%abc-edited-by Alejandro Planchart, Jesse Rodin
%%abc-edited-by Alejandro Planchart
%%abcx-initial-encoding-date 2014/07/25/
%%humdrum-veritas 2998412979
%%humdrum-veritas-data 801469002
%%linebreak <none>
%%barnumbers 0
L: 1/4
M: 3/1
Q: 1/2=120
%%staves [1 2 3 4]
V: 1 clef=treble
V: 2 clef=treble-8
V: 3 clef=treble-8
V: 4 clef=bass
K: C
[V:1] c8c2A2 | 
[V:2] c8c4 | 
[V:3] z12 | 
[V:4] z12 | 
[V:1] _B4A8 | 
[V:2] d2e2f6e2 | 
[V:3] z12 | 
[V:4] z12 | 
[V:1] _B3GG4G4 | 
[V:2] g6e3cc2 | 
[V:3] z12 | 
[V:4] z12 | 
[V:1] A4G2c4B2 | 
[V:2] z2f2e2c2d4 | 
[V:3] z12 | 
[V:4] z12 | 
[V:1] c8c4 | 
[V:2] c8e4 | 
[V:3] z12 | 
[V:4] z12 | 
[V:1] d4e6d2 | 
[V:2] f4g4c4- | 
[V:3] z12 | 
[V:4] z12 | 
[V:1] e4d4e4 | 
[V:2] c4B4c4 | 
[V:3] z12 | 
[V:4] z12 | 
[V:1] f4d2e2c2d2- | 
[V:2] z2d4c2A2B2 | 
[V:3] z12 | 
[V:4] z12 | 
[V:1] dcA2G2c4B2 | 
[V:2] G2c4e2d4 | 
[V:3] z12 | 
[V:4] z12 | 
[V:1] c8z4 | 
[V:2] c8z4 | 
[V:3] z12 | 
[V:4] z12 | 
[V:1] z12 | 
[V:2] c4_B2A4_B2- | 
[V:3] z12 | 
[V:4] C,4D,3E,F,2G,2 | 
[V:1] z12 | 
[V:2] BGG2A2Gcd=B2A | 
[V:3] z12 | 
[V:4] E,3C,C,2E,2D,4 | 
[V:1] z12 | 
[V:2] c4z4c4 | 
[V:3] z12 | 
[V:4] C,6F,4E,2 | 
[V:1] z12 | 
[V:2] d4e4e4 | 
[V:3] z12 | 
[V:4] F,4G,4C,4 | 
[V:1] z12 | 
[V:2] e4d2e2f4 | 
[V:3] z12 | 
[V:4] z2C,2B,,2C,2D,4 | 
[V:1] z12 | 
[V:2] g2e3cd2B2c2 | 
[V:3] z12 | 
[V:4] C,4z2F,2G,2A,2 | 
[V:1] z12 | 
[V:2] z2f2de2fecd2 | 
[V:3] z12 | 
[V:4] F,4G,2A,4B,2 | 
[V:1] z12 | 
[V:2] e2c4d2cBA2 | 
[V:3] z12 | 
[V:4] C4A,2B,2C4 | 
[V:1] z12 | 
[V:2] G2g3fede2f2 | 
[V:3] z12 | 
[V:4] C,4B,,2C,4D,2 | 
[V:1] z12 | 
[V:2] e2d3cc4B2 | 
[V:3] z12 | 
[V:4] C,2F,4E,2D,4 | 
[V:1] z4_e8 | 
[V:2] c2z2g8 | 
[V:3] c12 | 
[V:4] C,12 | 
[V:1] d4c8 | 
[V:2] g4e2f2e4 | 
[V:3] _B4A8 | 
[V:4] G,4A,2F,2C3B, | 
[V:1] d6B2B4 | 
[V:2] d6g4g2 | 
[V:3] _B4G8 | 
[V:4] G,4B,3CD4 | 
[V:1] c4A2A3GF2 | 
[V:2] e4f4f4 | 
[V:3] A2=B2c8 | 
[V:4] C4F,8 | 
[V:1] E2F2G2E4F2 | 
[V:2] g4G4A4 | 
[V:3] z4c8 | 
[V:4] C,8C,4 | 
[V:1] D4C4z2G2 | 
[V:2] B4G4g2e2 | 
[V:3] d4e4e4 | 
[V:4] B,,4C,8 | 
[V:1] A2B2c4d2e2- | 
[V:2] f4g2a3gef | 
[V:3] d4e2f4g2 | 
[V:4] z12 | 
[V:1] edBcd2B2B3A | 
[V:2] g4a4f3e | 
[V:3] e4d8 | 
[V:4] z12 | 
[V:1] c8z4 | 
[V:2] g4z4e2f2 | 
[V:3] c12 | 
[V:4] C,12 | 
[V:1] E8E2F2 | 
[V:2] g8a4 | 
[V:3] z4z4c4 | 
[V:4] C6B,2A,4 | 
[V:1] G4A2c4BA | 
[V:2] d2e2f6d2 | 
[V:3] _B4A8 | 
[V:4] G,4F,8 | 
[V:1] G4E4C4 | 
[V:2] d4c2g3fe2 | 
[V:3] _B2G2G8 | 
[V:4] G,4C,8 | 
[V:1] z2c4A2B3c | 
[V:2] d2c4f2d2e2 | 
[V:3] A6c2=B2A2 | 
[V:4] F,3E,F,2A,2G,4 | 
[V:1] A4F4A2B2 | 
[V:2] f3ga4f4 | 
[V:3] c8c4- | 
[V:4] F,8F,2G,2 | 
[V:1] c4_B2A4G2 | 
[V:2] e4z4z4 | 
[V:3] c4d8 | 
[V:4] A,4G,2A,2_B,4 | 
[V:1] A2_B3AA4G2 | 
[V:2] z12 | 
[V:3] e2f2g2e4d2 | 
[V:4] A,2D4C2_B,4 | 
[V:1] A4z4z4 | 
[V:2] c8A4 | 
[V:3] e12 | 
[V:4] A,6=B,2C4 | 
[V:1] G8A4 | 
[V:2] B4c4A4 | 
[V:3] d4e4f3e | 
[V:4] G,4C,4z2D,2- | 
[V:1] B2c4c2A2B2- | 
[V:2] d2e2c4f2d2 | 
[V:3] f2g2e2c2d4 | 
[V:4] D,2C,4F,4G,2- | 
[V:1] BcA4c3de2 | 
[V:2] e4f4g4 | 
[V:3] B2c3BA2G2c2- | 
[V:4] G,2A,2F,4C,4 | 
[V:1] c4f2e2dcB2 | 
[V:2] e4d2c2BAG2- | 
[V:3] cBc2d2e2f2g2- | 
[V:4] z2C,2B,,2C,2D,2E,2 | 
[V:1] e3cd2c3BBA | 
[V:2] G2g4f2g4 | 
[V:3] g2c2B2c2d4 | 
[V:4] C,4G,2A,2G,4 | 
[V:1] c12- | 
[V:2] e2f2g4e3c | 
[V:3] c12- | 
[V:4] C,12- | 
[V:1] c12 ||  
[V:2] c12 ||  
[V:3] c12 ||  
[V:4] C,12 ||  
[V:1]  [K:C] [K:clef=treble][M:3/1]c8d4 | 
[V:2]  [K:C] [K:clef=treble-8][M:3/1]c8B4 | 
[V:3]  [K:C] [K:clef=treble-8][M:3/1]z12 | 
[V:4]  [K:C] [K:clef=bass][M:3/1]z12 | 
[V:1] e4f4d3c | 
[V:2] c4d4f2e2 | 
[V:3] z12 | 
[V:4] z12 | 
[V:1] e8d4 | 
[V:2] c4A4B4 | 
[V:3] c8d4 | 
[V:4] C,8B,,4 | 
[V:1] c2B2A6G2 | 
[V:2] G4d3cA2B2 | 
[V:3] e4f4d3c | 
[V:4] C,4D,4F,3E, | 
[V:1] G4G8 | 
[V:2] c4z4c2d2 | 
[V:3] e12 | 
[V:4] C,12 | 
[V:1] C4z2c2A2B2 | 
[V:2] e8f4 | 
[V:3] g8f4 | 
[V:4] z4C,4D,4 | 
[V:1] c4d4e4 | 
[V:2] g4a2f2g4 | 
[V:3] e4d4c4 | 
[V:4] C,4F,4E,4 | 
[V:1] f2d2e2c4B2 | 
[V:2] f4e2a4g2 | 
[V:3] d2B2c2e2d4 | 
[V:4] D,4C,4G,4 | 
[V:1] c8z4 | 
[V:2] e2f2g4z4 | 
[V:3] c12 | 
[V:4] C,12 | 
[V:1] c8A4 | 
[V:2] f8f4 | 
[V:3] z12 | 
[V:4] F,12 | 
[V:1] _B4A6G2 | 
[V:2] d6c2d4 | 
[V:3] z12 | 
[V:4] G,4F,8 | 
[V:1] G12- | 
[V:2] e6d2B4 | 
[V:3] z12 | 
[V:4] E,12 | 
[V:1] G4E8 | 
[V:2] c6B2G4 | 
[V:3] z12 | 
[V:4] C,12 | 
[V:1] G8G4 | 
[V:2] c6d2e4 | 
[V:3] z12 | 
[V:4] z4z4C3B, | 
[V:1] A2B2c6B2 | 
[V:2] f2g2c2f3ed2 | 
[V:3] z12 | 
[V:4] A,3G,F,6G,2 | 
[V:1] c2d2e4d4 | 
[V:2] c4A4B4 | 
[V:3] z12 | 
[V:4] A,2F,2C4G,4 | 
[V:1] c2z2c4d4 | 
[V:2] c8z4 | 
[V:3] z12 | 
[V:4] z2A,4F,4G,2 | 
[V:1] e4f4e2c2 | 
[V:2] c4d4e4 | 
[V:3] z12 | 
[V:4] E,4D,4C,4 | 
[V:1] d4c2c4B2 | 
[V:2] f2g2e2c2d4 | 
[V:3] z12 | 
[V:4] B,,4C,4G,4 | 
[V:1] c12 | 
[V:2] c8e2f2 | 
[V:3] z12 | 
[V:4] C,12- | 
[V:1] z4c3BAGG2- | 
[V:2] g4e6c2 | 
[V:3] c12 | 
[V:4] C,12 | 
[V:1] G2F2G2EDG2A2 | 
[V:2] c4d6e2 | 
[V:3] A4G2_B4c2 | 
[V:4] z12 | 
[V:1] ^F3EG8 | 
[V:2] c4d8 | 
[V:3] A4G8 | 
[V:4] z12 | 
[V:1] B4A2c2B2G2- | 
[V:2] z12 | 
[V:3] G4A4=B4 | 
[V:4] E,4F,4G,4 | 
[V:1] G2A2G2E2F2G2 | 
[V:2] z12 | 
[V:3] c2A2B2c2d4 | 
[V:4] C,2F,2E,3D,/C,/B,,4 | 
[V:1] E4z4c4 | 
[V:2] g4a2g2e3f | 
[V:3] c8c4 | 
[V:4] C,4F,2E,2A,4 | 
[V:1] B2A4G2c3B | 
[V:2] g2a2f2g3fe2 | 
[V:3] d3cd2e3de2 | 
[V:4] G,2F,4E,2C,4 | 
[V:1] A2G4E2F2E2 | 
[V:2] d2B2c4z2g2- | 
[V:3] f2g2e3cd2c2- | 
[V:4] D,2E,2C,4B,,2C,2 | 
[V:1] D4C2z2G2A2 | 
[V:2] g2g2e4c4 | 
[V:3] c2B2c4z4 | 
[V:4] G,4C,4z2F,2 | 
[V:1] B2c2d2e2f2ec | 
[V:2] z12 | 
[V:3] G2A2B2c2d2e2 | 
[V:4] E,3F,D,2C,2z2C2 | 
[V:1] d4e2c4B2 | 
[V:2] z4g4g4 | 
[V:3] f2g3fe2d4 | 
[V:4] B,2G,2C4G,4 | 
[V:1] c12 ||  
[V:2] g12 ||  
[V:3] c12 ||  
[V:4] C,12 ||  
[V:1]  [K:C] [K:clef=treble][M:2/1]C8- | 
[V:2]  [K:C] [K:clef=treble-8][M:2/1]z8 | 
[V:3]  [K:C] [K:clef=treble-8][M:2/1]z8 | 
[V:4]  [K:C] [K:clef=bass][M:2/1]C,6D,2 | 
[V:1] C4D4 | 
[V:2] z8 | 
[V:3] z8 | 
[V:4] E,4F,4 | 
[V:1] E8 | 
[V:2] z8 | 
[V:3] z8 | 
[V:4] E,2G,4F,2 | 
[V:1] F8 | 
[V:2] z8 | 
[V:3] z8 | 
[V:4] D,8 | 
[V:1] G8- | 
[V:2] z8 | 
[V:3] c8- | 
[V:4] C,8- | 
[V:1] G4c4- | 
[V:2] z8 | 
[V:3] c8 | 
[V:4] C,8 | 
[V:1] c4B4 | 
[V:2] z8 | 
[V:3] e8 | 
[V:4] C8 | 
[V:1] A8 | 
[V:2] z8 | 
[V:3] f8 | 
[V:4] D8 | 
[V:1] G8 | 
[V:2] z8 | 
[V:3] g8- | 
[V:4] G,8- | 
[V:1] z4B4 | 
[V:2] z8 | 
[V:3] g8 | 
[V:4] G,8 | 
[V:1] c4A4- | 
[V:2] z8 | 
[V:3] f8 | 
[V:4] A,6B,2 | 
[V:1] A2G2G4- | 
[V:2] z8 | 
[V:3] e8- | 
[V:4] C4C,4 | 
[V:1] G4c4 | 
[V:2] z8 | 
[V:3] e8 | 
[V:4] E,6F,2 | 
[V:1] B4d4 | 
[V:2] z8 | 
[V:3] d8 | 
[V:4] G,4B,4 | 
[V:1] e4c4- | 
[V:2] z8 | 
[V:3] c4e4 | 
[V:4] A,4C4 | 
[V:1] c2B4A2 | 
[V:2] z8 | 
[V:3] d8 | 
[V:4] G,8 | 
[V:1] c8 | 
[V:2] z8 | 
[V:3] c8- | 
[V:4] C,8- | 
[V:1] z8 | 
[V:2] z8 | 
[V:3] c8 | 
[V:4] C,8 | 
[V:1] _e8 | 
[V:2] z8 | 
[V:3] z8 | 
[V:4] C8 | 
[V:1] d8 | 
[V:2] z8 | 
[V:3] z8 | 
[V:4] B,8 | 
[V:1] c8 | 
[V:2] _e8 | 
[V:3] z8 | 
[V:4] C8 | 
[V:1] B8 | 
[V:2] d8 | 
[V:3] z8 | 
[V:4] G,8 | 
[V:1] c8 | 
[V:2] c8 | 
[V:3] z8 | 
[V:4] _A,8 | 
[V:1] d8 | 
[V:2] B8 | 
[V:3] z8 | 
[V:4] G,8 | 
[V:1] G8 | 
[V:2] c8 | 
[V:3] z8 | 
[V:4] _E,8 | 
[V:1] ^F8 | 
[V:2] d8 | 
[V:3] z8 | 
[V:4] D,8 | 
[V:1] _B8 | 
[V:2] G8 | 
[V:3] z8 | 
[V:4] (3_E,6F,2G,4 | 
[V:1] A8 | 
[V:2] ^F8 | 
[V:3] z8 | 
[V:4] D,8 | 
[V:1] G4G4- | 
[V:2] _B8 | 
[V:3] z8 | 
[V:4] G,8 | 
[V:1] G4^F4 | 
[V:2] A8 | 
[V:3] z8 | 
[V:4] D,8 | 
[V:1] G8 | 
[V:2] G8 | 
[V:3] z8 | 
[V:4] z4G,4- | 
[V:1] _B8 | 
[V:2] z4d4- | 
[V:3] z8 | 
[V:4] G,4G,4 | 
[V:1] A4G4- | 
[V:2] d4_e4- | 
[V:3] z8 | 
[V:4] F,2E,2C,4- | 
[V:1] G4=F4 | 
[V:2] e4d4 | 
[V:3] z8 | 
[V:4] C,2B,,6 | 
[V:1] _E8 | 
[V:2] c8 | 
[V:3] z8 | 
[V:4] C,4_E,3F, | 
[V:1] D8- | 
[V:2] B8- | 
[V:3] z8 | 
[V:4] G,8- | 
[V:1] D8 | 
[V:2] B8 | 
[V:3] z8 | 
[V:4] G,8 | 
[V:1] _E8- | 
[V:2] c6B2 | 
[V:3] z8 | 
[V:4] C,8 | 
[V:1] E4C4 | 
[V:2] G8- | 
[V:3] z8 | 
[V:4] C,8- | 
[V:1] C8 | 
[V:2] G8 | 
[V:3] z8 | 
[V:4] C,8 | 
[V:1] z4c4- | 
[V:2] A6B2 | 
[V:3] c8 | 
[V:4] F,8- | 
[V:1] c2B2A4 | 
[V:2] c4d4- | 
[V:3] A8 | 
[V:4] F,8 | 
[V:1] G8 | 
[V:2] d4e4 | 
[V:3] B4c4 | 
[V:4] G,4E,4 | 
[V:1] F8 | 
[V:2] c8- | 
[V:3] A8 | 
[V:4] F,8 | 
[V:1] G4E4- | 
[V:2] c8 | 
[V:3] G8 | 
[V:4] C,8 | 
[V:1] E4G4 | 
[V:2] B4c4 | 
[V:3] z4G4 | 
[V:4] E,8 | 
[V:1] F8 | 
[V:2] d8 | 
[V:3] A4B4 | 
[V:4] D,8 | 
[V:1] E8 & G8 | 
[V:2] G8- | 
[V:3] c6B2 | 
[V:4] C,6D,2 | 
[V:1] z8 | 
[V:2] G4A4 | 
[V:3] c4d4- | 
[V:4] E,4F,4 | 
[V:1] z8 | 
[V:2] B4G4- | 
[V:3] d2c2c4- | 
[V:4] G,4E,4 | 
[V:1] z8 | 
[V:2] G4F4 | 
[V:3] c4B4 | 
[V:4] D,8 | 
[V:1] E6F2 | 
[V:2] G8 | 
[V:3] c8- | 
[V:4] C,8- | 
[V:1] G4c4- | 
[V:2] z4g4 | 
[V:3] c8 | 
[V:4] C,8 | 
[V:1] c4B4 | 
[V:2] a4g4 | 
[V:3] z8 | 
[V:4] F,4G,4 | 
[V:1] c8 | 
[V:2] e4f4 | 
[V:3] c8 | 
[V:4] A,8 | 
[V:1] B8- | 
[V:2] g8- | 
[V:3] d8 | 
[V:4] G,8- | 
[V:1] B8 | 
[V:2] g8 | 
[V:3] e8 | 
[V:4] G,8 | 
[V:1] A8 | 
[V:2] c8 | 
[V:3] f8 | 
[V:4] F,8 | 
[V:1] G8 | 
[V:2] c8 | 
[V:3] e8 | 
[V:4] z4C,4 | 
[V:1] F4A4- | 
[V:2] A8- | 
[V:3] d8 | 
[V:4] D,6E,2 | 
[V:1] A2B2c4 | 
[V:2] A8- | 
[V:3] !fermata!c8- | 
[V:4] F,8- | 
[V:1] B2A3GF2 | 
[V:2] A8 | 
[V:3] c8- | 
[V:4] F,8 | 
[V:1] !fermata!E8 ||  
[V:2] !fermata!G8 ||  
[V:3] c8 ||  
[V:4] !fermata!C,8 ||  
[V:1]  [K:C] [K:clef=treble][M:2/1]C8 | 
[V:2]  [K:C] [K:clef=treble-8][M:2/1]z8 | 
[V:3]  [K:C] [K:clef=treble-8][M:2/1]z8 | 
[V:4]  [K:C] [K:clef=bass][M:2/1]C8 | 
[V:1] D8 | 
[V:2] z8 | 
[V:3] z8 | 
[V:4] B,8 | 
[V:1] E8- | 
[V:2] z8 | 
[V:3] z8 | 
[V:4] C8 | 
[V:1] E4F4- | 
[V:2] z8 | 
[V:3] z8 | 
[V:4] A,8 | 
[V:1] F2E2E4 | 
[V:2] z8 | 
[V:3] z8 | 
[V:4] G,4A,4 | 
[V:1] D6C2 | 
[V:2] z8 | 
[V:3] z8 | 
[V:4] F,6E,D, | 
[V:1] E8 | 
[V:2] z8 | 
[V:3] c8 | 
[V:4] C,8 | 
[V:1] z4A4 | 
[V:2] z8 | 
[V:3] d8 | 
[V:4] F,8 | 
[V:1] G4c4 | 
[V:2] z8 | 
[V:3] e8 | 
[V:4] E,6F,2 | 
[V:1] B4A4- | 
[V:2] z8 | 
[V:3] e4f4- | 
[V:4] G,4D,4- | 
[V:1] A2G2G4 | 
[V:2] z8 | 
[V:3] f2e2e4 | 
[V:4] D,2E,2C,4 | 
[V:1] F6ED | 
[V:2] z8 | 
[V:3] d6c2 | 
[V:4] D,4B,,4 | 
[V:1] C4z4 | 
[V:2] z8 | 
[V:3] e8 | 
[V:4] C,4A,,4- | 
[V:1] E4D4 | 
[V:2] z8 | 
[V:3] z8 | 
[V:4] A,,4B,,4 | 
[V:1] E4F4 | 
[V:2] z8 | 
[V:3] z8 | 
[V:4] C,4D,4 | 
[V:1] E4D4- | 
[V:2] z8 | 
[V:3] z8 | 
[V:4] C,4F,4- | 
[V:1] D2C2C4- | 
[V:2] z8 | 
[V:3] z8 | 
[V:4] F,4E,4 | 
[V:1] C4B,4 | 
[V:2] z8 | 
[V:3] z8 | 
[V:4] D,8 | 
[V:1] C8 | 
[V:2] z8 | 
[V:3] z8 | 
[V:4] C,8- | 
[V:1] z4c4- | 
[V:2] c8 | 
[V:3] z8 | 
[V:4] C,8 | 
[V:1] c2B2c4 | 
[V:2] e8 | 
[V:3] z8 | 
[V:4] z8 | 
[V:1] d4e4- | 
[V:2] f4g4 | 
[V:3] z8 | 
[V:4] z8 | 
[V:1] e2c2c4 | 
[V:2] c8 | 
[V:3] z8 | 
[V:4] z8 | 
[V:1] z4d4 | 
[V:2] B8 | 
[V:3] z8 | 
[V:4] z8 | 
[V:1] c4A2B2- | 
[V:2] c4d4 | 
[V:3] z8 | 
[V:4] z8 | 
[V:1] B2c2A4 | 
[V:2] e4f2d2 | 
[V:3] z8 | 
[V:4] z8 | 
[V:1] G4c4 | 
[V:2] e2c4B2 | 
[V:3] z8 | 
[V:4] z8 | 
[V:1] z4d4 | 
[V:2] A4G4 | 
[V:3] z8 | 
[V:4] z8 | 
[V:1] e4f4 | 
[V:2] c4d4 | 
[V:3] z8 | 
[V:4] z8 | 
[V:1] e4d4- | 
[V:2] e4f4- | 
[V:3] z8 | 
[V:4] z8 | 
[V:1] d2c2c4- | 
[V:2] f4e4 | 
[V:3] z8 | 
[V:4] z8 | 
[V:1] c4B4 | 
[V:2] d8 | 
[V:3] z8 | 
[V:4] z8 | 
[V:1] c8 | 
[V:2] c8- | 
[V:3] z8 | 
[V:4] z8 | 
[V:1] z8 | 
[V:2] c8 | 
[V:3] z8 | 
[V:4] z8 | 
[V:1] c8- | 
[V:2] e8- | 
[V:3] g8- | 
[V:4] C,4C,4 | 
[V:1] c4c4 | 
[V:2] e8 | 
[V:3] g8- | 
[V:4] C,8 | 
[V:1] B8 | 
[V:2] d8- | 
[V:3] g8- | 
[V:4] G,8 | 
[V:1] B8 | 
[V:2] d8- | 
[V:3] g8 | 
[V:4] G,8 | 
[V:1] A4A4 | 
[V:2] d8 | 
[V:3] f8- | 
[V:4] D,8- | 
[V:1] d6c2 | 
[V:2] d4d4- | 
[V:3] f8- | 
[V:4] D,8- | 
[V:1] A8- | 
[V:2] d2c2A4 | 
[V:3] f8- | 
[V:4] D,8 | 
[V:1] A4A4 | 
[V:2] z4c4- | 
[V:3] f8 | 
[V:4] F,8 | 
[V:1] G8 | 
[V:2] c8 | 
[V:3] e8 | 
[V:4] C,8 | 
[V:1] F8 | 
[V:2] A4B4 | 
[V:3] d8 | 
[V:4] D,8 | 
[V:1] E4F4 | 
[V:2] A8 | 
[V:3] c8 | 
[V:4] A,,8 | 
[V:1] G2F2D4 | 
[V:2] G4G4 | 
[V:3] d8 | 
[V:4] _B,,4B,,4 | 
[V:1] z4A4 | 
[V:2] A4c4- | 
[V:3] c8 | 
[V:4] A,,4A,,4 | 
[V:1] (3:2:4G2F4E2D4 | 
[V:2] c2_B2G3F | 
[V:3] d8 | 
[V:4] _B,,8 | 
[V:1] !fermata!C8 | 
[V:2] !fermata!A8 | 
[V:3] !fermata!e8 | 
[V:4] !fermata!A,,8 | 
[V:1] c6B2 | 
[V:2] c6d2 | 
[V:3] z8 | 
[V:4] z8 | 
[V:1] c4d4- | 
[V:2] e4f4 | 
[V:3] z8 | 
[V:4] C4B,2A,2 | 
[V:1] d2e4c2 | 
[V:2] g4e4 | 
[V:3] z8 | 
[V:4] G,4C4 | 
[V:1] d2B4A2 | 
[V:2] d8 | 
[V:3] z8 | 
[V:4] G,8 | 
[V:1] c6B2 | 
[V:2] c8 | 
[V:3] z8 | 
[V:4] C,8- | 
[V:1] A2G2A4 | 
[V:2] z4c4 | 
[V:3] z8 | 
[V:4] C,8 | 
[V:1] B3GG4- | 
[V:2] d4B4 | 
[V:3] z8 | 
[V:4] G,8 | 
[V:1] G2^F4E2 | 
[V:2] A8 | 
[V:3] z8 | 
[V:4] D,8 | 
[V:1] G8 | 
[V:2] G8 | 
[V:3] z8 | 
[V:4] D8 | 
[V:1] z4d4- | 
[V:2] z8 | 
[V:3] z8 | 
[V:4] B,8 | 
[V:1] d2B2c4 | 
[V:2] g4e2f2- | 
[V:3] z8 | 
[V:4] G,4A,4 | 
[V:1] d2B2G2A2 | 
[V:2] f2g2e2c2 | 
[V:3] z8 | 
[V:4] B,2G,2C4 | 
[V:1] B2G3FE2 | 
[V:2] d2e2c4 | 
[V:3] z8 | 
[V:4] B,2C2z2A,2 | 
[V:1] D2z2G2E2 | 
[V:2] d2G4c2 | 
[V:3] z8 | 
[V:4] B,3CD2E2 | 
[V:1] F2G2A2F2 | 
[V:2] A2B2c2d2 | 
[V:3] z8 | 
[V:4] C2D2A,2z2 | 
[V:1] G4c2A2 | 
[V:2] B2c2z2f2 | 
[V:3] z8 | 
[V:4] G,2E,2F,4 | 
[V:1] B4c2d2- | 
[V:2] d2e4f2 | 
[V:3] z8 | 
[V:4] G,3F,E,2D,2 | 
[V:1] d2e4c2- | 
[V:2] g4a4 | 
[V:3] z8 | 
[V:4] B,,2C,4F,2- | 
[V:1] c2d4B2- | 
[V:2] f4g4 | 
[V:3] z8 | 
[V:4] F,2D,2z2G,2- | 
[V:1] B2G4E2- | 
[V:2] e4c4 | 
[V:3] z8 | 
[V:4] G,2C,4A,2- | 
[V:1] E2F2D2z2 | 
[V:2] A4B2G2 | 
[V:3] z8 | 
[V:4] A,2F,2G,3A, | 
[V:1] G2A2B2G2- | 
[V:2] z2c2d2e2 | 
[V:3] z8 | 
[V:4] B,CA,2G,2C2- | 
[V:1] G2A4B2 | 
[V:2] c4d4 | 
[V:3] z8 | 
[V:4] C2F,4G,2 | 
[V:1] c4d4 | 
[V:2] c2e2f2g2- | 
[V:3] z8 | 
[V:4] A,4z2G,2 | 
[V:1] e2f4d2 | 
[V:2] g2a2f2g2- | 
[V:3] z8 | 
[V:4] E,2D,4B,,2 | 
[V:1] e4c2d2 | 
[V:2] g2c4B2 | 
[V:3] z8 | 
[V:4] C,3D,E,F,D,2 | 
[V:1] e2c4d2 | 
[V:2] c3BA2G2 | 
[V:3] z8 | 
[V:4] C,4z4 | 
[V:1] B2c2d2e2 | 
[V:2] z2c2B2c2 | 
[V:3] z8 | 
[V:4] E,4D,2C,2 | 
[V:1] f2d2e2d2- | 
[V:2] d4c2f2 | 
[V:3] z8 | 
[V:4] B,,4C,2D,2 | 
[V:1] dcc4B2 | 
[V:2] g2e2d4 | 
[V:3] z8 | 
[V:4] B,,2C,2G,4 | 
[V:1] c8 | 
[V:2] c8- | 
[V:3] z8 | 
[V:4] C,8- | 
[V:1] z8 | 
[V:2] c8 | 
[V:3] z8 | 
[V:4] C,8 | 
[V:1] [M:3/1]G8A4 | 
[V:2] z12 | 
[V:3] [M:3/1]e8d4- | 
[V:4] z12 | 
[V:1] B8c4 | 
[V:2] z12 | 
[V:3] d4e8 | 
[V:4] z12 | 
[V:1] d4e6c2 | 
[V:2] z12 | 
[V:3] f4g8 | 
[V:4] z12 | 
[V:1] c8B4 | 
[V:2] z12 | 
[V:3] e6c2d4 | 
[V:4] z12 | 
[V:1] c12 | 
[V:2] z12 | 
[V:3] c12 | 
[V:4] [M:3/1]C,12 | 
[V:1] z12 | 
[V:2] z12 | 
[V:3] d8c4- | 
[V:4] G,8A,4 | 
[V:1] z12 | 
[V:2] z12 | 
[V:3] c4B8 | 
[V:4] F,4G,4E,4 | 
[V:1] z12 | 
[V:2] z12 | 
[V:3] A4B4G4 | 
[V:4] F,4G,8 | 
[V:1] z12 | 
[V:2] z12 | 
[V:3] c8B4 | 
[V:4] C,4D,8 | 
[V:1] z12 | 
[V:2] g12 | 
[V:3] c12 | 
[V:4] C,12 | 
[V:1] (3:2:1c8/1023- | 
[V:2] (3:2:2a8g4 | 
[V:3] (3:2:1z12 | 
[V:4] (3:2:2F,8G,4 | 
[V:1] [M:4/2]c8 | 
[V:2] e4f4 | 
[V:3] [M:4/2]c8 | 
[V:4] [M:4/2]A,8 | 
[V:1] B8 | 
[V:2] g8 | 
[V:3] d8- | 
[V:4] G,8 | 
[V:1] A8 | 
[V:2] a4f4 | 
[V:3] d8 | 
[V:4] F,8 | 
[V:1] G8 | 
[V:2] g4c4 | 
[V:3] e8 | 
[V:4] E,8 | 
[V:1] z4A4 | 
[V:2] d8 | 
[V:3] f8 | 
[V:4] D,8 | 
[V:1] G4c4- | 
[V:2] B4c4 | 
[V:3] g4e4 | 
[V:4] E,4C,4 | 
[V:1] c2B4A2 | 
[V:2] z4d4 | 
[V:3] d8 | 
[V:4] G,8 | 
[V:1] c8 | 
[V:2] e2f2g4- | 
[V:3] c8 | 
[V:4] C,8- | 
[V:1] z4c4 | 
[V:2] g2e2g2f2 | 
[V:3] e8 | 
[V:4] C,8 | 
[V:1] d4e4- | 
[V:2] d4c4 | 
[V:3] f4g4 | 
[V:4] z8 | 
[V:1] e4c4 | 
[V:2] e4f3e | 
[V:3] c8 | 
[V:4] A,8 | 
[V:1] d4c4 | 
[V:2] g4e4 | 
[V:3] B4c4 | 
[V:4] G,4A,4 | 
[V:1] A4B4- | 
[V:2] f6d2- | 
[V:3] d8 | 
[V:4] F,4G,4 | 
[V:1] B4c4 | 
[V:2] d2g2^f2e2 | 
[V:3] G4A4 | 
[V:4] =B,4A,4 | 
[V:1] d8 | 
[V:2] g4z2d2 | 
[V:3] B4G4- | 
[V:4] G,6F,2 | 
[V:1] G4A4 | 
[V:2] e2c2d2f2 | 
[V:3] G4F4 | 
[V:4] E,4D,4 | 
[V:1] B4G4- | 
[V:2] e8 | 
[V:3] G4c4 | 
[V:4] z2E,4F,2 | 
[V:1] G4^F4 | 
[V:2] d8- | 
[V:3] B2G2A4 | 
[V:4] G,4D,4 | 
[V:1] G8 | 
[V:2] d8 | 
[V:3] G8 | 
[V:4] z8 | 
[V:1] z4c4 | 
[V:2] z8 | 
[V:3] c6d2 | 
[V:4] A,6G,2 | 
[V:1] B2G2A4 | 
[V:2] z4d4 | 
[V:3] e4f4 | 
[V:4] E,4D,4 | 
[V:1] G8 | 
[V:2] B4c4- | 
[V:3] g4e4- | 
[V:4] E,4C,4- | 
[V:1] c6B2 | 
[V:2] c4A4- | 
[V:3] e2c2c4- | 
[V:4] C,4F,4- | 
[V:1] c2d2e2de | 
[V:2] A2B2c2B2 | 
[V:3] c4g4 | 
[V:4] F,4E,4 | 
[V:1] f6e2 | 
[V:2] d8- | 
[V:3] a4f4 | 
[V:4] D,8 | 
[V:1] d2c2c4- | 
[V:2] d4G4 | 
[V:3] g4e4 | 
[V:4] B,,4C,4 | 
[V:1] c2B4A2 | 
[V:2] z4g4- | 
[V:3] d8 | 
[V:4] G,8 | 
[V:1] c8- | 
[V:2] g4g4 | 
[V:3] c8- | 
[V:4] C,8- | 
[V:1] c8- | 
[V:2] e6f2 | 
[V:3] c8- | 
[V:4] C,8- | 
[V:1] c8 |]  
[V:2] g8 |]  
[V:3] c8 |]  
[V:4] C,8 |]  



